X:11
T:Tour 2 (C. Caron)
C:Burns Duo
M:4/4
L:1/8
K:G
B2 GA B2 AG|A2 c2 B2 G2|\
B2 GA B2 AG|A2 d2 B4:|\
|:B2 GA B2 cB|A2 GF E2 D2|\
B2 GA B2 cB|AGFD E4:|
